X: 1
T: Ellin polkka  [Dm]
O: trad Finland
R: polka
Z: 2007 John Chambers <jc@trillian.mit.edu>
M: 2/4
L: 1/16
K: Dm
|:\
"Dm"A,2DD DDDE | FEDD DDDE |\
FEDD DDDE | FEDD "A7"DDEE ||\
"Dm"A,2DD "(/C#)"DDDE | "(/C)"FEDD "(/B)"DDDE |
"(/Bb)"F2G2 "A7"F2E2 | "Dm"D4 D4 :|\
|:\
"Dm"AAA2 G2F2 | "A7"E2A,2 EA,EF |\
GGG2 F2E2 |1,3 "Dm"F2D2 DFDF :|2,4 "Dm"D2F2 D4 :|
|:\
"Dm"d4 "(D7)"c4 | "Gm"BAGA B2G2 |\
"C7"c4 B4 | "F"AGFG A2F2 ||\
"Gm"B2c2 B2A2 | GAGF E2G2 |\
"A7"ABAG F2E2 | "Dm"D2F2 D4 :|
|:\
"A7"E2EE E2E2 | "Dm"D^CDE F2D2 |\
[1,3 "A7"E2EE E2E2 | "Dm"D^CDE F2D2 :|\
[2,4 "A7"E2A,2 =B,2^C2 | "Dm"D4 D4 :|

%%sep 1 1 500
%%sep 1 1 500

